packages/token-projects/images/lp_fantom_usdc.svg

<svg width="716" height="716" xmlns="http://www.w3.org/2000/svg" xml:space="preserve" overflow="hidden"><defs><clipPath id="a"><path d="M3334 926h716v716h-716z"/></clipPath><clipPath id="c"><path d="M3525 1052h329v287h-329z"/></clipPath><clipPath id="d"><path d="M3525 1052h329v287h-329z"/></clipPath><clipPath id="e"><path d="M3525 1052h329v287h-329z"/></clipPath><clipPath id="f"><path d="M3723 1409h130v129h-130z"/></clipPath><clipPath id="g"><path d="M3723 1409h130v129h-130z"/></clipPath><clipPath id="h"><path d="M3723 1409h130v129h-130z"/></clipPath><clipPath id="i"><path d="M3521 1409h129v129h-129z"/></clipPath><clipPath id="j"><path d="M3521 1409h129v129h-129z"/></clipPath><clipPath id="k"><path d="M3521 1409h129v129h-129z"/></clipPath><linearGradient x1="3360.98" y1="1283.45" x2="4023.25" y2="1283.45" gradientUnits="userSpaceOnUse" spreadMethod="pad" id="b"><stop offset="0" stop-color="#008EF0"/><stop offset=".001" stop-color="#008EF0"/><stop offset="1" stop-color="#7FFDFF"/></linearGradient></defs><g clip-path="url(#a)" transform="translate(-3334 -926)"><path d="M3926.26 1049.3c-62.54-62.546-145.69-96.994-234.14-96.994-88.45 0-171.62 34.448-234.16 96.994-62.54 62.54-96.98 145.7-96.98 234.14s34.45 171.6 96.98 234.15c62.53 62.54 145.69 96.99 234.15 96.99 88.45 0 171.6-34.45 234.14-96.99 62.55-62.55 96.99-145.69 96.99-234.15 0-88.45-34.43-171.6-96.98-234.14Z" fill="url(#b)"/><path d="M3692.12 1641.44c-95.63 0-185.52-37.23-253.15-104.85-67.62-67.62-104.85-157.52-104.85-253.15 0-95.62 37.23-185.52 104.85-253.14 67.63-67.625 157.52-104.857 253.15-104.857s185.52 37.232 253.15 104.857c67.62 67.62 104.85 157.52 104.85 253.14 0 95.63-37.23 185.53-104.85 253.15-67.63 67.62-157.52 104.85-253.15 104.85Zm0-689.12c-88.45 0-171.6 34.447-234.15 96.99-62.54 62.55-96.99 145.69-96.99 234.13s34.45 171.6 96.98 234.15c62.53 62.54 145.69 96.99 234.15 96.99 88.45 0 171.6-34.45 234.14-96.99 62.55-62.55 96.99-145.69 96.99-234.15 0-88.45-34.44-171.6-96.99-234.14-62.54-62.546-145.69-96.98-234.13-96.98Z" fill="#FFF"/><g clip-path="url(#c)"><g clip-path="url(#d)"><g clip-path="url(#e)"><path d="M3766.594 1337.964a78.652 78.652 0 0 1-31.634-6.625c-20.453-8.974-36.175-26.294-43.124-47.511l-2.656-8.113-2.657 8.113c-6.95 21.217-22.671 38.537-43.123 47.526-20.453 8.974-43.84 8.828-64.175-.409l-28.627-13.001a41.926 41.926 0 0 1-24.598-38.172v-105.207c0-7.851 5.65-14.563 13.387-15.891 45.167-7.792 96.962-11.921 149.793-11.921 17.27 0 34.422.437 51.268 1.298 17.868.92 31.387 16.547 29.84 34.379-26.19-2.262-53.474-3.415-81.108-3.415-45.853 0-90.787 3.196-130.918 9.281v91.49a9.687 9.687 0 0 0 5.679 8.814l27.372 12.447c12.277 5.574 26.466 6.274 38.846.919 12.364-5.355 21.488-15.351 25.678-28.133l5.415-16.547c3.942-12.053 14.95-20.808 27.636-20.91 12.904-.117 23.867 7.762 27.868 19.99l5.298 16.168c4.205 12.812 13.27 23.712 25.576 29.213 12.307 5.501 25.869 5.457 38.117-.117l28.627-13.001a9.687 9.687 0 0 0 5.678-8.813V1053h32.278v226.743a41.926 41.926 0 0 1-24.598 38.172l-28.628 13.001c-10.277 4.699-21.386 7.048-32.51 7.048Z" fill="#FFF"/></g></g></g><g clip-path="url(#f)"><g clip-path="url(#g)"><g clip-path="url(#h)"><path d="M3787.5 1538c35.74 0 64.5-28.76 64.5-64.5 0-35.74-28.76-64.5-64.5-64.5-35.74 0-64.5 28.76-64.5 64.5 0 35.74 28.76 64.5 64.5 64.5Z" fill="#2775CA"/><path d="M3805.24 1483.71c0-9.4-5.65-12.63-16.93-13.97-8.07-1.08-9.68-3.23-9.68-6.99 0-3.76 2.69-6.18 8.06-6.18 4.84 0 7.53 1.61 8.87 5.64.27.81 1.08 1.35 1.88 1.35h4.3c1.08 0 1.89-.81 1.89-1.88v-.27c-1.08-5.92-5.92-10.49-12.1-11.02v-6.45c0-1.08-.8-1.88-2.15-2.15h-4.03c-1.07 0-1.88.8-2.15 2.15v6.18c-8.06 1.07-13.17 6.45-13.17 13.17 0 8.87 5.38 12.36 16.66 13.7 7.53 1.35 9.95 2.96 9.95 7.26s-3.76 7.26-8.87 7.26c-6.99 0-9.41-2.96-10.21-6.99-.27-1.08-1.08-1.61-1.88-1.61h-4.57c-1.08 0-1.88.8-1.88 1.88v.27c1.07 6.71 5.37 11.55 14.24 12.9v6.45c0 1.07.81 1.88 2.15 2.15h4.03c1.08 0 1.88-.81 2.15-2.15v-6.45c8.06-1.35 13.44-6.99 13.44-14.25Z" fill="#FFF"/><path d="M3773.79 1511.93c-20.96-7.52-31.71-30.9-23.91-51.6 4.03-11.29 12.9-19.89 23.91-23.92 1.08-.53 1.62-1.34 1.62-2.69v-3.76c0-1.07-.54-1.88-1.62-2.15-.27 0-.8 0-1.07.27-25.53 8.06-39.51 35.21-31.45 60.74 4.84 15.05 16.4 26.6 31.45 31.44 1.07.54 2.15 0 2.42-1.07.27-.27.27-.54.27-1.08v-3.76c0-.81-.81-1.88-1.62-2.42Zm28.49-83.85c-1.07-.54-2.15 0-2.42 1.08-.27.27-.27.53-.27 1.07v3.76c0 1.08.81 2.15 1.62 2.69 20.96 7.53 31.71 30.91 23.91 51.6-4.03 11.29-12.9 19.89-23.91 23.92-1.08.54-1.62 1.34-1.62 2.69v3.76c0 1.08.54 1.88 1.62 2.15.27 0 .8 0 1.07-.27 25.53-8.06 39.51-35.21 31.45-60.74-4.84-15.32-16.67-26.87-31.45-31.71Z" fill="#FFF"/></g></g></g><g clip-path="url(#i)"><g clip-path="url(#j)"><g clip-path="url(#k)"><path d="M3650 1473.5c0 35.62-28.88 64.5-64.5 64.5-35.62 0-64.5-28.88-64.5-64.5 0-35.62 28.88-64.5 64.5-64.5 35.62 0 64.5 28.88 64.5 64.5Z" fill="#1969FF" fill-rule="evenodd"/><path d="M3581.59 1429.51c2.17-1.14 5.48-1.14 7.65 0l22.18 11.69c1.3.69 2.02 1.72 2.15 2.78h.02v58.76c-.03 1.16-.75 2.31-2.17 3.06l-22.18 11.69c-2.17 1.14-5.48 1.14-7.65 0l-22.18-11.69c-1.41-.75-2.09-1.91-2.13-3.06v-58.76h.01c.1-1.07.79-2.07 2.12-2.78l22.18-11.69Zm28.48 47.14-20.84 11.02c-2.17 1.15-5.47 1.15-7.64 0l-20.78-11v25.89l20.78 10.93c1.23.66 2.51 1.3 3.75 1.33h.07c1.25 0 2.45-.63 3.67-1.22l20.99-11.14v-25.81Zm-56.26 24.82c0 2.25.26 3.73.77 4.77.43.87 1.07 1.53 2.24 2.33l.07.05c.25.17.54.36.88.57l.41.25 1.24.76-1.79 2.98-1.39-.85-.24-.14c-.4-.25-.73-.47-1.04-.68-3.34-2.27-4.58-4.74-4.61-9.89v-.15h3.46Zm29.93-40.44c-.17.05-.32.12-.45.19l-22.14 11.73c-.03.01-.05.02-.07.04l-.02.01.04.02.05.02 22.14 11.73c.13.07.28.14.45.19v-23.93Zm3.52 0v23.93c.17-.05.32-.12.45-.19l22.14-11.73c.03-.01.05-.02.07-.03l.02-.01-.04-.02-.05-.03-22.14-11.73c-.13-.07-.28-.14-.45-.19Zm22.81-12.85-19.91 10.45 19.91 10.46v-20.91Zm-49.26 0v20.91l19.9-10.46-19.9-10.45Zm26.88-15.54c-1.15-.61-3.23-.61-4.38 0l-22.16 11.71c-.03.01-.05.03-.07.04l-.02.01.04.02.05.03 22.16 11.71c1.15.61 3.23.61 4.38 0l22.16-11.71c.03-.02.05-.03.07-.04l.02-.01-.04-.02-.05-.03-22.16-11.71Zm25.68 1.18 1.39.85.24.14c.4.25.73.47 1.04.68 3.34 2.27 4.58 4.74 4.61 9.89v.15h-3.46c0-2.25-.26-3.73-.77-4.77-.43-.87-1.07-1.53-2.24-2.33l-.07-.05c-.25-.17-.54-.36-.88-.57l-.41-.25-1.24-.76 1.79-2.98Z" fill="#FFF"/></g></g></g></g></svg>

<svg width="716" height="716" xmlns="http://www.w3.org/2000/svg" xmlns:xlink="http://www.w3.org/1999/xlink" xml:space="preserve" overflow="hidden"><defs><clipPath id="clip0"><rect x="3334" y="926" width="716" height="716"/></clipPath><linearGradient x1="3360.98" y1="1283.45" x2="4023.25" y2="1283.45" gradientUnits="userSpaceOnUse" spreadMethod="pad" id="fill1"><stop offset="0" stop-color="#008EF0"/><stop offset="0.00127816" stop-color="#008EF0"/><stop offset="1" stop-color="#7FFDFF"/></linearGradient><clipPath id="clip2"><rect x="3525" y="1052" width="329" height="287"/></clipPath><clipPath id="clip3"><rect x="3525" y="1052" width="329" height="287"/></clipPath><clipPath id="clip4"><rect x="3525" y="1052" width="329" height="287"/></clipPath><clipPath id="clip5"><rect x="3723" y="1409" width="130" height="129"/></clipPath><clipPath id="clip6"><rect x="3723" y="1409" width="130" height="129"/></clipPath><clipPath id="clip7"><rect x="3723" y="1409" width="130" height="129"/></clipPath><clipPath id="clip8"><rect x="3521" y="1409" width="129" height="129"/></clipPath><clipPath id="clip9"><rect x="3521" y="1409" width="129" height="129"/></clipPath><clipPath id="clip10"><rect x="3521" y="1409" width="129" height="129"/></clipPath></defs><g clip-path="url(#clip0)" transform="translate(-3334 -926)"><path d="M3926.26 1049.3C3863.72 986.754 3780.57 952.306 3692.12 952.306 3603.67 952.306 3520.5 986.754 3457.96 1049.3 3395.42 1111.84 3360.98 1195 3360.98 1283.44 3360.98 1371.88 3395.43 1455.04 3457.96 1517.59 3520.49 1580.13 3603.65 1614.58 3692.11 1614.58 3780.56 1614.58 3863.71 1580.13 3926.25 1517.59 3988.8 1455.04 4023.24 1371.9 4023.24 1283.44 4023.24 1194.99 3988.81 1111.84 3926.26 1049.3Z" fill="url(#fill1)"/><path d="M3692.12 1641.44C3596.49 1641.44 3506.6 1604.21 3438.97 1536.59 3371.35 1468.97 3334.12 1379.07 3334.12 1283.44 3334.12 1187.82 3371.35 1097.92 3438.97 1030.3 3506.6 962.675 3596.49 925.443 3692.12 925.443 3787.75 925.443 3877.64 962.675 3945.27 1030.3 4012.89 1097.92 4050.12 1187.82 4050.12 1283.44 4050.12 1379.07 4012.89 1468.97 3945.27 1536.59 3877.64 1604.21 3787.75 1641.44 3692.12 1641.44ZM3692.12 952.32C3603.67 952.32 3520.52 986.767 3457.97 1049.31 3395.43 1111.86 3360.98 1195 3360.98 1283.44 3360.98 1371.88 3395.43 1455.04 3457.96 1517.59 3520.49 1580.13 3603.65 1614.58 3692.11 1614.58 3780.56 1614.58 3863.71 1580.13 3926.25 1517.59 3988.8 1455.04 4023.24 1371.9 4023.24 1283.44 4023.24 1194.99 3988.8 1111.84 3926.25 1049.3 3863.71 986.754 3780.56 952.32 3692.12 952.32Z" fill="#FFFFFF"/><g clip-path="url(#clip2)"><g clip-path="url(#clip3)"><g clip-path="url(#clip4)"><path d="M240.488 284.964C229.705 284.964 218.936 282.761 208.868 278.339 188.424 269.365 172.709 252.045 165.763 230.828L163.108 222.715 160.452 230.828C153.506 252.045 137.791 269.365 117.348 278.354 96.9044 287.328 73.5283 287.182 53.2018 277.945L24.5872 264.944C9.61601 258.144 0 243.217 0 226.772L0 121.565C0 113.714 5.64704 107.002 13.3807 105.674 58.5279 97.882 110.3 93.7526 163.108 93.7526 180.37 93.7526 197.515 94.1903 214.354 95.0512 232.214 95.9705 245.727 111.598 244.18 129.43 218.002 127.168 190.73 126.015 163.108 126.015 117.275 126.015 72.3609 129.211 32.248 135.296L32.248 226.786C32.248 230.58 34.4659 234.024 37.9242 235.6L65.2839 248.047C77.5556 253.621 91.7389 254.321 104.113 248.966 116.472 243.611 125.592 233.615 129.78 220.833L135.193 204.286C139.133 192.233 150.135 183.478 162.816 183.376 175.715 183.259 186.673 191.138 190.672 203.366L195.968 219.534C200.171 232.346 209.232 243.246 221.533 248.747 233.834 254.248 247.39 254.204 259.633 248.63L288.247 235.629C291.705 234.053 293.923 230.609 293.923 226.816L293.923 0 326.186 0 326.186 226.743C326.186 243.188 316.57 258.115 301.599 264.915L272.984 277.916C262.711 282.615 251.607 284.964 240.488 284.964Z" fill="#FFFFFF" transform="matrix(1.00044 0 0 1 3526 1053)"/></g></g></g><g clip-path="url(#clip5)"><g clip-path="url(#clip6)"><g clip-path="url(#clip7)"><path d="M3787.5 1538C3823.24 1538 3852 1509.24 3852 1473.5 3852 1437.76 3823.24 1409 3787.5 1409 3751.76 1409 3723 1437.76 3723 1473.5 3723 1509.24 3751.76 1538 3787.5 1538Z" fill="#2775CA"/><path d="M3805.24 1483.71C3805.24 1474.31 3799.59 1471.08 3788.31 1469.74 3780.24 1468.66 3778.63 1466.51 3778.63 1462.75 3778.63 1458.99 3781.32 1456.57 3786.69 1456.57 3791.53 1456.57 3794.22 1458.18 3795.56 1462.21 3795.83 1463.02 3796.64 1463.56 3797.44 1463.56L3801.74 1463.56C3802.82 1463.56 3803.63 1462.75 3803.63 1461.68L3803.63 1461.41C3802.55 1455.49 3797.71 1450.92 3791.53 1450.39L3791.53 1443.94C3791.53 1442.86 3790.73 1442.06 3789.38 1441.79L3785.35 1441.79C3784.28 1441.79 3783.47 1442.59 3783.2 1443.94L3783.2 1450.12C3775.14 1451.19 3770.03 1456.57 3770.03 1463.29 3770.03 1472.16 3775.41 1475.65 3786.69 1476.99 3794.22 1478.34 3796.64 1479.95 3796.64 1484.25 3796.64 1488.55 3792.88 1491.51 3787.77 1491.51 3780.78 1491.51 3778.36 1488.55 3777.56 1484.52 3777.29 1483.44 3776.48 1482.91 3775.68 1482.91L3771.11 1482.91C3770.03 1482.91 3769.23 1483.71 3769.23 1484.79L3769.23 1485.06C3770.3 1491.77 3774.6 1496.61 3783.47 1497.96L3783.47 1504.41C3783.47 1505.48 3784.28 1506.29 3785.62 1506.56L3789.65 1506.56C3790.73 1506.56 3791.53 1505.75 3791.8 1504.41L3791.8 1497.96C3799.86 1496.61 3805.24 1490.97 3805.24 1483.71Z" fill="#FFFFFF"/><path d="M3773.79 1511.93C3752.83 1504.41 3742.08 1481.03 3749.88 1460.33 3753.91 1449.04 3762.78 1440.44 3773.79 1436.41 3774.87 1435.88 3775.41 1435.07 3775.41 1433.72L3775.41 1429.96C3775.41 1428.89 3774.87 1428.08 3773.79 1427.81 3773.52 1427.81 3772.99 1427.81 3772.72 1428.08 3747.19 1436.14 3733.21 1463.29 3741.27 1488.82 3746.11 1503.87 3757.67 1515.42 3772.72 1520.26 3773.79 1520.8 3774.87 1520.26 3775.14 1519.19 3775.41 1518.92 3775.41 1518.65 3775.41 1518.11L3775.41 1514.35C3775.41 1513.54 3774.6 1512.47 3773.79 1511.93ZM3802.28 1428.08C3801.21 1427.54 3800.13 1428.08 3799.86 1429.16 3799.59 1429.43 3799.59 1429.69 3799.59 1430.23L3799.59 1433.99C3799.59 1435.07 3800.4 1436.14 3801.21 1436.68 3822.17 1444.21 3832.92 1467.59 3825.12 1488.28 3821.09 1499.57 3812.22 1508.17 3801.21 1512.2 3800.13 1512.74 3799.59 1513.54 3799.59 1514.89L3799.59 1518.65C3799.59 1519.73 3800.13 1520.53 3801.21 1520.8 3801.48 1520.8 3802.01 1520.8 3802.28 1520.53 3827.81 1512.47 3841.79 1485.32 3833.73 1459.79 3828.89 1444.47 3817.06 1432.92 3802.28 1428.08Z" fill="#FFFFFF"/></g></g></g><g clip-path="url(#clip8)"><g clip-path="url(#clip9)"><g clip-path="url(#clip10)"><path d="M3650 1473.5C3650 1509.12 3621.12 1538 3585.5 1538 3549.88 1538 3521 1509.12 3521 1473.5 3521 1437.88 3549.88 1409 3585.5 1409 3621.12 1409 3650 1437.88 3650 1473.5Z" fill="#1969FF" fill-rule="evenodd"/><path d="M3581.59 1429.51C3583.76 1428.37 3587.07 1428.37 3589.24 1429.51L3611.42 1441.2C3612.72 1441.89 3613.44 1442.92 3613.57 1443.98L3613.59 1443.98 3613.59 1502.74C3613.56 1503.9 3612.84 1505.05 3611.42 1505.8L3589.24 1517.49C3587.07 1518.63 3583.76 1518.63 3581.59 1517.49L3559.41 1505.8C3558 1505.05 3557.32 1503.89 3557.28 1502.74 3557.28 1502.62 3557.28 1502.52 3557.28 1502.44L3557.28 1444.38C3557.28 1444.29 3557.28 1444.21 3557.28 1444.13L3557.28 1443.98 3557.29 1443.98C3557.39 1442.91 3558.08 1441.91 3559.41 1441.2L3581.59 1429.51ZM3610.07 1476.65 3589.23 1487.67C3587.06 1488.82 3583.76 1488.82 3581.59 1487.67L3560.81 1476.67 3560.81 1502.56 3581.59 1513.49C3582.82 1514.15 3584.1 1514.79 3585.34 1514.82L3585.41 1514.82C3586.66 1514.82 3587.86 1514.19 3589.08 1513.6L3610.07 1502.46 3610.07 1476.65ZM3553.81 1501.47C3553.81 1503.72 3554.07 1505.2 3554.58 1506.24 3555.01 1507.11 3555.65 1507.77 3556.82 1508.57L3556.89 1508.62C3557.14 1508.79 3557.43 1508.98 3557.77 1509.19L3558.18 1509.44 3559.42 1510.2 3557.63 1513.18 3556.24 1512.33 3556 1512.19C3555.6 1511.94 3555.27 1511.72 3554.96 1511.51 3551.62 1509.24 3550.38 1506.77 3550.35 1501.62L3550.35 1501.47 3553.81 1501.47ZM3583.74 1461.03C3583.57 1461.08 3583.42 1461.15 3583.29 1461.22L3561.15 1472.95C3561.12 1472.96 3561.1 1472.97 3561.08 1472.99L3561.06 1473 3561.1 1473.02 3561.15 1473.04 3583.29 1484.77C3583.42 1484.84 3583.57 1484.91 3583.74 1484.96L3583.74 1461.03ZM3587.26 1461.03 3587.26 1484.96C3587.43 1484.91 3587.58 1484.84 3587.71 1484.77L3609.85 1473.04C3609.88 1473.03 3609.9 1473.02 3609.92 1473.01L3609.94 1473 3609.9 1472.98 3609.85 1472.95 3587.71 1461.22C3587.58 1461.15 3587.43 1461.08 3587.26 1461.03ZM3610.07 1448.18 3590.16 1458.63 3610.07 1469.09 3610.07 1448.18ZM3560.81 1448.18 3560.81 1469.09 3580.71 1458.63 3560.81 1448.18ZM3587.69 1432.64C3586.54 1432.03 3584.46 1432.03 3583.31 1432.64L3561.15 1444.35C3561.12 1444.36 3561.1 1444.38 3561.08 1444.39L3561.06 1444.4 3561.1 1444.42 3561.15 1444.45 3583.31 1456.16C3584.46 1456.77 3586.54 1456.77 3587.69 1456.16L3609.85 1444.45C3609.88 1444.43 3609.9 1444.42 3609.92 1444.41L3609.94 1444.4 3609.9 1444.38 3609.85 1444.35 3587.69 1432.64ZM3613.37 1433.82 3614.76 1434.67 3615 1434.81C3615.4 1435.06 3615.73 1435.28 3616.04 1435.49 3619.38 1437.76 3620.62 1440.23 3620.65 1445.38L3620.65 1445.53 3617.19 1445.53C3617.19 1443.28 3616.93 1441.8 3616.42 1440.76 3615.99 1439.89 3615.35 1439.23 3614.18 1438.43L3614.11 1438.38C3613.86 1438.21 3613.57 1438.02 3613.23 1437.81L3612.82 1437.56 3611.58 1436.8 3613.37 1433.82Z" fill="#FFFFFF"/></g></g></g></g></svg>
